apps/common/mobile/resources/icons/common/icon-table-add-row-above.svg

<svg width="24" height="24" viewBox="0 0 24 24" xmlns="http://www.w3.org/2000/svg">
<path d="M12.7637 3.40137C11.8662 3.85444 11.25 4.78358 11.25 5.85742C11.2507 7.37445 12.4802 8.60596 13.999 8.60645C14.5824 8.60657 15.0761 8.60635 15.5 8.60645V13.5459H19.75C19.8379 13.5459 19.9216 13.563 20 13.5908V10.7959C20 10.3817 20.3358 10.0459 20.75 10.0459C21.1642 10.0459 21.5 10.3817 21.5 10.7959V18.2959C21.5 19.2624 20.7165 20.0459 19.75 20.0459H3.75C2.78355 20.0459 2.00008 19.2623 2 18.2959V7.20898C1.99993 7.20248 1.99902 7.19598 1.99902 7.18945V5.15137C1.99929 4.18509 2.78366 3.40137 3.75 3.40137H12.7637ZM3.5 18.2959C3.50008 18.4339 3.61198 18.5459 3.75 18.5459H8V15.0459H3.5V18.2959ZM9.5 18.5459H14V15.0459H9.5V18.5459ZM20 15C19.9215 15.0279 19.838 15.0459 19.75 15.0459H15.5V18.5459H19.75C19.888 18.5459 20 18.4339 20 18.2959V15ZM3.5 13.5459H8V10.0459H3.5V13.5459ZM9.5 13.5459H14V10.0459H9.5V13.5459Z" fill="#444444"/>
<path d="M18 1.10645C18.4142 1.10645 18.75 1.44223 18.75 1.85645V5.10742L22 5.10645C22.4142 5.10645 22.75 5.44227 22.75 5.85645C22.7499 6.27054 22.4141 6.60645 22 6.60645L18.75 6.60742V9.85645C18.7499 10.2706 18.4142 10.6064 18 10.6064C17.5859 10.6064 17.2501 10.2706 17.25 9.85645V6.60742L14 6.60645C13.5859 6.60645 13.2501 6.27054 13.25 5.85645C13.25 5.44227 13.5858 5.10645 14 5.10645L17.25 5.10742V1.85645C17.25 1.44226 17.5858 1.10649 18 1.10645Z" fill="#446ECA"/>
</svg>

<svg xmlns="http://www.w3.org/2000/svg" width="24" height="24" fill="none" viewBox="0 0 24 24">
  <g class="icon-table-add-row-above">
    <path fill="#446ECA" d="M22 6.606a.75.75 0 0 0 0-1.5l-3.25.001v-3.25a.75.75 0 1 0-1.5 0v3.25H14a.75.75 0 1 0 0 1.5h3.25v3.25a.75.75 0 1 0 1.5 0v-3.25H22Z" class="icon-fill-blue-primary"/>
    <path fill="#444" fill-rule="evenodd" d="M12.764 3.401a2.75 2.75 0 0 0 1.235 5.205H15.5v4.94h4.25c.088 0 .172.017.25.045v-2.795a.75.75 0 0 1 1.5 0v7.5a1.75 1.75 0 0 1-1.75 1.75h-16A1.75 1.75 0 0 1 2 18.296V7.209l-.001-.02V5.151c0-.966.785-1.75 1.751-1.75h9.014ZM3.5 18.296c0 .138.112.25.25.25H8v-3.5H3.5v3.25Zm6 .25H14v-3.5H9.5v3.5ZM20 15a.744.744 0 0 1-.25.046H15.5v3.5h4.25a.25.25 0 0 0 .25-.25V15ZM3.5 13.546H8v-3.5H3.5v3.5Zm6 0H14v-3.5H9.5v3.5Z" class="icon-fill-gray-primary" clip-rule="evenodd"/>
  </g>
</svg>
